material/.icons/material/margin.svg

<svg xmlns="http://www.w3.org/2000/svg" viewBox="0 0 24 24"><path d="M20 4v5l-1.5-1.5-13 13-2-2 13-13L15 4h5m-3 16a3 3 0 01-3-3v-2a3 3 0 013-3 3 3 0 013 3v2a3 3 0 01-3 3m0-6a1 1 0 00-1 1v2a1 1 0 001 1 1 1 0 001-1v-2a1 1 0 00-1-1M7 12a3 3 0 01-3-3V7a3 3 0 013-3 3 3 0 013 3v2a3 3 0 01-3 3m0-6a1 1 0 00-1 1v2a1 1 0 001 1 1 1 0 001-1V7a1 1 0 00-1-1z"/></svg>

<?xml version="1.0" encoding="UTF-8"?><!DOCTYPE svg PUBLIC "-//W3C//DTD SVG 1.1//EN" "http://www.w3.org/Graphics/SVG/1.1/DTD/svg11.dtd"><svg xmlns="http://www.w3.org/2000/svg" xmlns:xlink="http://www.w3.org/1999/xlink" version="1.1" id="mdi-margin" width="24" height="24" viewBox="0 0 24 24"><path d="M20,4V9L18.5,7.5L5.5,20.5L3.5,18.5L16.5,5.5L15,4H20M17,20A3,3 0 0,1 14,17V15A3,3 0 0,1 17,12A3,3 0 0,1 20,15V17A3,3 0 0,1 17,20M17,14A1,1 0 0,0 16,15V17A1,1 0 0,0 17,18A1,1 0 0,0 18,17V15A1,1 0 0,0 17,14M7,12A3,3 0 0,1 4,9V7A3,3 0 0,1 7,4A3,3 0 0,1 10,7V9A3,3 0 0,1 7,12M7,6A1,1 0 0,0 6,7V9A1,1 0 0,0 7,10A1,1 0 0,0 8,9V7A1,1 0 0,0 7,6Z" /></svg>
